X: 37358
T: Slängpolska Efter Juringius
R: waltz
M: 3/4
K: Eminor
B>B EB EB|c>B AB cd|A>A DA DA|B>A GA Bc|B2 AG F>E|D/E/F/D/ E4:|
|:F>F B,F B,F|G>F EF GA|F>F B,F B,F|G>F EF GA|
A>A DA DA|B>A GA Bc|B2 AG F>E|D/E/F/D/ E4:|

